lib/brands/icons/firebase.svg

<svg xmlns="http://www.w3.org/2000/svg" fill="none" aria-hidden="true" viewBox="0 0 48 48"><g id="firebase-Icon"><g id="Group"><path id="Vector" fill="#FFA000" d="M9.45996 36.2737L14.3834 4.76934C14.4436 4.38296 14.7441 4.07838 15.1296 4.01289C15.5151 3.94739 15.8993 4.13582 16.0836 4.48065L21.1753 13.9774L23.2048 10.1132C23.362 9.81443 23.6718 9.62735 24.0095 9.62735C24.3471 9.62735 24.6569 9.81443 24.8141 10.1132L38.5547 36.2736H9.45996V36.2737Z"/><path id="Vector_2" fill="#F57C00" d="M26.4691 24.0016L21.1729 13.9729L9.45996 36.2737L26.4691 24.0016Z"/><path id="Vector_3" fill="#FFCA28" d="M38.5549 36.2737L34.7839 12.9386C34.7269 12.6035 34.4878 12.3282 34.1639 12.2245C33.84 12.1207 33.4856 12.2071 33.2451 12.4473L9.45996 36.2733L22.6209 43.6539C23.4473 44.1154 24.4538 44.1154 25.2803 43.6539L38.5549 36.2733V36.2737Z"/><path id="Vector_4" fill="white" fill-opacity="0.2" d="M34.7842 12.9386C34.7272 12.6035 34.488 12.3283 34.1642 12.2245C33.8403 12.1207 33.4858 12.2071 33.2453 12.4474L28.5245 17.1801L24.8123 10.1131C24.6552 9.81428 24.3453 9.6272 24.0077 9.6272C23.67 9.6272 23.3602 9.81428 23.203 10.1131L21.1735 13.9772L16.0816 4.48066C15.8969 4.13573 15.5123 3.94761 15.1263 4.01359C14.7403 4.07957 14.4408 4.38492 14.3813 4.7716L9.46021 36.2737H9.44434L9.46021 36.2919L9.58976 36.3555L33.2385 12.6795C33.4789 12.438 33.8342 12.3511 34.1589 12.4546C34.4836 12.558 34.7232 12.8344 34.7796 13.1705L38.5188 36.2964L38.5551 36.2736L34.7842 12.9386L34.7842 12.9386ZM9.50339 36.2305L14.3836 4.99438C14.4431 4.60771 14.7433 4.30236 15.1289 4.23638C15.5145 4.1704 15.8992 4.35846 16.0841 4.70345L21.1755 14.2002L23.205 10.336C23.3622 10.0372 23.6721 9.85014 24.0097 9.85014C24.3473 9.85014 24.6572 10.0372 24.8144 10.336L28.4512 17.2529L9.50318 36.2305H9.50339Z"/><path id="Vector_5" fill="#A52714" d="M25.2803 43.4315C24.4539 43.8929 23.4474 43.8929 22.6209 43.4315L9.49179 36.0714L9.45996 36.2738L22.6209 43.6521C23.4473 44.1135 24.4538 44.1135 25.2803 43.6521L38.5549 36.2738L38.5208 36.0647L25.2803 43.4316V43.4315Z" opacity="0.2"/><path id="Vector_6" fill="url(#paint0_linear_94_17457)" d="M34.7461 12.9435C34.6894 12.6085 34.451 12.3331 34.1283 12.2299C33.8056 12.1268 33.4524 12.2125 33.2127 12.4527L28.5081 17.1831L24.8092 10.1193C24.6525 9.82067 24.3438 9.63365 24.0073 9.63365C23.6709 9.63365 23.3622 9.82067 23.2055 10.1193L21.1828 13.9818L16.109 4.48918C15.925 4.14441 15.5417 3.95632 15.1574 4.02233C14.7731 4.08834 14.474 4.39344 14.4147 4.78003L9.51074 36.2683L22.6257 43.6434C23.4492 44.1046 24.4522 44.1046 25.2758 43.6434L38.504 36.2683L34.7461 12.9434V12.9435Z"/></g></g><defs><linearGradient id="paint0_linear_94_17457" x1="8.49888" x2="44.6798" y1="10.8139" y2="29.8989" gradientUnits="userSpaceOnUse"><stop stop-color="white" stop-opacity="0.1"/><stop offset="0.14" stop-color="white" stop-opacity="0.08"/><stop offset="0.61" stop-color="white" stop-opacity="0.02"/><stop offset="1" stop-color="white" stop-opacity="0"/></linearGradient></defs></svg>

<svg xmlns="http://www.w3.org/2000/svg" fill="none" aria-hidden="true" viewBox="0 0 48 48"><path fill="#FFA000" d="m9.46 36.274 4.923-31.505a.91.91 0 0 1 1.7-.288l5.092 9.496 2.03-3.864a.91.91 0 0 1 1.61 0l13.74 26.16H9.46Z"/><path fill="#F57C00" d="m26.47 24.002-5.297-10.03L9.46 36.275l17.01-12.272Z"/><path fill="#FFCA28" d="m38.555 36.274-3.771-23.335a.91.91 0 0 0-1.539-.492L9.46 36.273l13.16 7.38a2.727 2.727 0 0 0 2.66 0l13.275-7.38Z"/><path fill="#fff" fill-opacity=".2" d="M34.784 12.939a.91.91 0 0 0-1.539-.492l-4.72 4.733-3.713-7.067a.909.909 0 0 0-1.609 0l-2.03 3.864-5.091-9.496a.91.91 0 0 0-1.7.29L9.46 36.275h-.016l.016.018.13.063L33.239 12.68a.91.91 0 0 1 1.54.49l3.74 23.126.036-.022-3.77-23.335ZM9.504 36.23l4.88-31.236a.91.91 0 0 1 1.7-.29l5.091 9.496 2.03-3.864a.91.91 0 0 1 1.61 0l3.636 6.917L9.503 36.23Z"/><path fill="#A52714" d="M25.28 43.431a2.728 2.728 0 0 1-2.66 0l-13.128-7.36-.032.203 13.16 7.378a2.728 2.728 0 0 0 2.66 0l13.275-7.378-.034-.21-13.24 7.368Z" opacity=".2"/><path fill="url(#a)" d="M34.746 12.944a.904.904 0 0 0-1.533-.49l-4.705 4.73-3.699-7.065a.906.906 0 0 0-1.604 0l-2.022 3.863-5.074-9.493a.905.905 0 0 0-1.694.291L9.51 36.268l13.115 7.375a2.71 2.71 0 0 0 2.65 0l13.228-7.375-3.758-23.325Z"/><defs><linearGradient id="a" x1="8.499" x2="44.68" y1="10.814" y2="29.899" gradientUnits="userSpaceOnUse"><stop stop-color="#fff" stop-opacity=".1"/><stop offset=".14" stop-color="#fff" stop-opacity=".08"/><stop offset=".61" stop-color="#fff" stop-opacity=".02"/><stop offset="1" stop-color="#fff" stop-opacity="0"/></linearGradient></defs></svg>
